X: 10909
T: Drowsy Maggie
R: reel
M: 4/4
K: Edorian
|:E2BE dEBE|E2BE ADFA|E2BE dEBE|BABc dDFA:|
d2fd c2ec|defg afge|d2fd c2ec|BABc dDFA|
d2fd c2ec|defg afge|a2fg fdec|BABc dDFA|

